images/paw.svg

<svg width="48" height="43" viewBox="0 0 48 43" fill="none" xmlns="http://www.w3.org/2000/svg">
<path d="M24 19C16.5591 19 6.0844 30.5031 6.0844 37.7687C6.0019 41.0406 8.50877 43 12.7313 43C17.3063 43 20.3344 40.6469 24 40.6469C27.7031 40.6469 30.7407 43 35.2688 43C39.4032 43 41.9944 41.0425 41.9944 37.7734C41.9156 30.5125 31.4438 19 24 19ZM10.2 17.8187C9.22784 14.5731 6.21565 12.4637 3.48565 13.12C0.755647 13.7762 -0.665978 16.9375 0.306584 20.1812C1.27877 23.4344 4.29096 25.5437 7.02096 24.8875C9.75096 24.2312 11.1656 21.0625 10.2 17.8187ZM18.1406 15.8687C21.0347 15.107 22.4878 11.2656 21.375 7.11531C20.2622 2.965 17.0156 0.449689 14.1103 1.1275C11.2163 1.88922 9.76315 5.73062 10.876 9.88094C11.9906 13.9469 15.2344 16.6375 18.1406 15.8687ZM44.5219 13.1219C41.7919 12.55 38.7797 14.575 37.8075 17.8206C36.8353 21.0672 38.2528 24.2303 40.9828 24.8866C43.7128 25.4584 46.7128 23.4334 47.6972 20.1878C48.6656 16.9375 47.1656 13.7781 44.5219 13.1219ZM29.8594 15.8687C32.6813 16.6305 36.0113 13.9469 37.1241 9.88094C38.2369 5.815 36.7842 1.88875 33.8897 1.1275C31.0678 0.365782 27.7378 3.04938 26.625 7.11531C25.5094 11.1812 26.9625 15.1094 29.8594 15.8687Z" fill="black"/>
</svg>

<svg width="48" height="43" fill="none" xmlns="http://www.w3.org/2000/svg"><path d="M24 19C16.56 19 6.084 30.503 6.084 37.769 6.002 41.04 8.51 43 12.731 43c4.575 0 7.603-2.353 11.269-2.353 3.703 0 6.74 2.353 11.269 2.353 4.134 0 6.725-1.958 6.725-5.227C41.916 30.513 31.444 19 24 19Zm-13.8-1.181c-.972-3.246-3.984-5.355-6.714-4.699-2.73.656-4.152 3.818-3.18 7.061.973 3.253 3.985 5.363 6.715 4.706 2.73-.656 4.145-3.825 3.179-7.068Zm7.94-1.95c2.895-.762 4.348-4.603 3.235-8.754-1.113-4.15-4.36-6.665-7.265-5.988-2.894.762-4.347 4.604-3.234 8.754 1.115 4.066 4.358 6.756 7.265 5.988Zm26.382-2.747c-2.73-.572-5.742 1.453-6.715 4.699-.972 3.246.446 6.41 3.176 7.066 2.73.571 5.73-1.454 6.714-4.7.969-3.25-.531-6.409-3.175-7.065Zm-14.663 2.747c2.822.762 6.152-1.922 7.265-5.988 1.113-4.066-.34-7.992-3.234-8.754-2.822-.761-6.152 1.922-7.265 5.988-1.116 4.066.337 7.994 3.234 8.754Z" fill="#000"/></svg>
